common/src/main/resources/files/plugins/datagrip/firebirdFileType.svg

<!--
  - The MIT License (MIT)
  -
  - Copyright (c) 2015-2024 Elior "Mallowigi" Boukhobza
  -
  - Permission is hereby granted, free of charge, to any person obtaining a copy
  - of this software and associated documentation files (the "Software"), to deal
  - in the Software without restriction, including without limitation the rights
  - to use, copy, modify, merge, publish, distribute, sublicense, and/or sell
  - copies of the Software, and to permit persons to whom the Software is
  - furnished to do so, subject to the following conditions:
  -
  - The above copyright notice and this permission notice shall be included in all
  - copies or substantial portions of the Software.
  -
  - THE SOFTWARE IS PROVIDED "AS IS", WITHOUT WARRANTY OF ANY KIND, EXPRESS OR
  - IMPLIED, INCLUDING BUT NOT LIMITED TO THE WARRANTIES OF MERCHANTABILITY,
  - FITNESS FOR A PARTICULAR PURPOSE AND NONINFRINGEMENT. IN NO EVENT SHALL THE
  - AUTHORS OR COPYRIGHT HOLDERS BE LIABLE FOR ANY CLAIM, DAMAGES OR OTHER
  - LIABILITY, WHETHER IN AN ACTION OF CONTRACT, TORT OR OTHERWISE, ARISING FROM,
  - OUT OF OR IN CONNECTION WITH THE SOFTWARE OR THE USE OR OTHER DEALINGS IN THE
  - SOFTWARE.
  -->
<svg data-big="true" width="16px" height="16px" viewBox="0 0 16 16" fill="#FF7043" xmlns="http://www.w3.org/2000/svg">
  <path fill-rule="evenodd" clip-rule="evenodd"
        d="M8.35304 1.27094C11.417 2.15044 13.0989 3.68385 13.4045 5.87404C13.4673 8.88662 12.2165 10.46 9.6552 10.5856C8.82996 10.4771 8.56439 9.80043 9.07553 9.1636C9.8865 8.24698 10.2463 7.41031 10.1549 6.65074C10.0892 6.19957 9.57239 5.73412 8.60437 5.25439C8.73572 5.09448 9.06982 5.05736 9.60952 5.14017C10.0778 5.18871 10.2263 4.96884 10.055 4.48626C10.192 5.07164 9.28109 4.98597 7.31935 4.23782C7.25367 4.21212 7.18799 4.18643 7.11946 4.16073C6.46554 4.00653 6.21426 4.26067 6.36274 4.91744C6.00295 4.90316 5.73167 4.92886 5.54606 5.00025C4.59803 5.57135 4.62659 6.08249 5.63459 6.53081C5.68599 6.21385 6.00866 6.06536 6.60261 6.08249C6.86246 6.15959 7.03379 6.23955 7.11375 6.3195C7.20227 6.3966 7.27366 6.47084 7.31935 6.54509C7.43071 6.71356 7.43071 6.88204 7.31935 7.05052C7.21084 7.21899 6.9881 7.38461 6.65686 7.54738C5.19198 8.01854 4.41528 8.83807 4.32104 10.0031V10.4943C4.32104 10.4986 4.32176 10.5028 4.32247 10.5071C4.32318 10.5114 4.3239 10.5157 4.3239 10.52C4.47524 11.9706 4.88644 12.9757 5.49181 13.6039C5.83447 13.9438 6.53693 14.4321 7.31935 14.6748C7.6563 14.7804 8.00182 14.8404 8.34733 14.8233C12.0053 14.6576 14.8208 11.7678 14.8208 8.02996C14.8208 4.41201 11.9681 1.43084 8.35304 1.27094ZM7.69342 4.92315H6.96526C6.90244 4.6376 7.01952 4.56621 7.31935 4.70613C7.425 4.75182 7.54779 4.82606 7.69342 4.92315Z"
  />
  <path
    d="M5.69162 14.4035C4.84353 13.6496 4.28956 12.8815 4.16106 11.8621C-0.370655 6.75924 3.51 2.0819 7.55913 1.28235C4.024 1.54506 1.29126 4.4891 1.29126 8.02995C1.29126 10.8169 2.97602 13.2127 5.38608 14.2493L5.69162 14.4035Z"
  />
</svg>

<svg xmlns="http://www.w3.org/2000/svg" width="16" height="16" fill="#FF7043" data-big="true"><path fill-rule="evenodd" d="M8.353 1.27q4.595 1.32 5.052 4.604.093 4.521-3.75 4.712c-.825-.109-1.09-.786-.58-1.422q1.217-1.375 1.08-2.513-.1-.677-1.55-1.397.195-.24 1.005-.114.702.072.445-.654c.137.586-.774.5-2.736-.248l-.2-.077q-.98-.23-.756.756-.539-.022-.817.083-1.423.857.089 1.53.077-.474.968-.448.39.118.51.237.136.116.206.226a.42.42 0 0 1 0 .506q-.163.253-.662.496-2.196.708-2.336 2.456v.491l.001.013.002.013c.151 1.45.562 2.456 1.168 3.084.342.34 1.045.828 1.827 1.07.337.106.683.166 1.028.15 3.658-.166 6.474-3.056 6.474-6.794a6.77 6.77 0 0 0-6.468-6.76m-.66 3.653h-.728q-.095-.427.354-.217.158.07.374.217" clip-rule="evenodd"/><path d="M5.692 14.404c-.848-.754-1.402-1.522-1.53-2.542-4.533-5.103-.652-9.78 3.397-10.58A6.768 6.768 0 0 0 5.386 14.25z"/></svg>
